usr/share/icons/biglinux-icons-material-dark/16/actions/archive.svg

<svg width="16" height="16" version="1.1" xmlns="http://www.w3.org/2000/svg">
 <defs>
  <style id="current-color-scheme" type="text/css">.ColorScheme-Text { color:#dedede; }</style>
 </defs>
 <g class="ColorScheme-Text" fill="currentColor">
  <path d="m7 2v1h1v1h1v-1h-1v-1zm1 2h-1v1h1zm0 1v1h1v-1zm0 1h-1v2h2v-1h-1z"/>
  <path d="m3 1c-1.108 0-2 0.892-2 2v10c0 1.108 0.892 2 2 2h5.7617a4.5 4.5 0 0 1-0.49805-1h-5.2637c-0.554 0-1-0.446-1-1v-10c0-0.554 0.446-1 1-1h10c0.554 0 1 0.446 1 1v5.2637a4.5 4.5 0 0 1 1 0.49609v-5.7598c0-1.108-0.892-2-2-2z"/>
  <path d="m12.5 16a3.5 3.5 0 0 1-3.5-3.5 3.5 3.5 0 0 1 3.5-3.5 3.5 3.5 0 0 1 3.5 3.5 3.5 3.5 0 0 1-3.5 3.5zm0-1.0859 2.5-2.5-0.70703-0.70703-1.293 1.293v-3h-1v3l-1.293-1.293-0.70703 0.70703z"/>
 </g>
</svg>

<svg xmlns="http://www.w3.org/2000/svg" width="16" height="16">
<defs>
<style id="current-color-scheme" type="text/css">
.ColorScheme-Text{color:#dedede}
</style>
</defs>
<g fill="currentColor" class="ColorScheme-Text">
<path d="M7 2v1h1v1h1V3H8V2zm1 2H7v1h1zm0 1v1h1V5zm0 1H7v2h2V7H8z"/>
<path d="M3 1c-1.108 0-2 .892-2 2v10c0 1.108.892 2 2 2h5.762a4.5 4.5 0 0 1-.498-1H3c-.554 0-1-.446-1-1V3c0-.554.446-1 1-1h10c.554 0 1 .446 1 1v5.264a4.5 4.5 0 0 1 1 .496V3c0-1.108-.892-2-2-2z"/>
<path d="M12.5 16A3.5 3.5 0 0 1 9 12.5 3.5 3.5 0 0 1 12.5 9a3.5 3.5 0 0 1 3.5 3.5 3.5 3.5 0 0 1-3.5 3.5m0-1.086 2.5-2.5-.707-.707L13 13v-3h-1v3l-1.293-1.293-.707.707z"/>
</g>
</svg>
